Obsidian-SemiLight/actions/22s/insert-table-of-contents.svg

<svg viewBox="0 0 22 22" xmlns="http://www.w3.org/2000/svg"><path d="m3 3v1h10v-1zm0 2v1h6v-1zm0 4v1h8v-1zm0 2v1h4v-1zm0 4v1h7v-1zm0 2v1h2v-1z" fill="#4d4d4d"/><path d="m16 3v1h1v2h-1v1h1 1 1v-1h-1v-2h1v-1h-1-1zm-6 2v1h1v-1zm2 0v1h1v-1zm2 0v1h1v-1zm0 4v1h1v2h-1v1h5v-1h-1v-2h1v-1zm2 1h1v2h-1zm-8 1v1h1v-1zm2 0v1h1v-1zm2 0v1h1v-1zm0 4v1h1v2h-1v1h1 1 1 4v-1h-1v-2h1v-1h-4-1-1zm2 1h1v2h-1zm2 0h1v2h-1zm-10 1v1h1v-1zm2 0v1h1v-1zm2 0v1h1v-1z" fill="#3daee9"/></svg>

<svg xmlns="http://www.w3.org/2000/svg" viewBox="0 0 22 22">
  <defs id="defs3051">
    <style type="text/css" id="current-color-scheme">
      .ColorScheme-Text {
        color:#4d4d4d;
      }
      .ColorScheme-Highlight {
        color:#3daee9;
      }
      </style>
  </defs>
 <path 
     style="fill:currentColor;fill-opacity:1;stroke:none" 
     d="M 3 3 L 3 4 L 13 4 L 13 3 L 3 3 z M 3 5 L 3 6 L 9 6 L 9 5 L 3 5 z M 3 9 L 3 10 L 11 10 L 11 9 L 3 9 z M 3 11 L 3 12 L 7 12 L 7 11 L 3 11 z M 3 15 L 3 16 L 10 16 L 10 15 L 3 15 z M 3 17 L 3 18 L 5 18 L 5 17 L 3 17 z "
     class="ColorScheme-Text"
     />
 <path 
     style="fill:currentColor;fill-opacity:1;stroke:none" 
     d="M 16 3 L 16 4 L 17 4 L 17 6 L 16 6 L 16 7 L 17 7 L 18 7 L 19 7 L 19 6 L 18 6 L 18 4 L 19 4 L 19 3 L 18 3 L 17 3 L 16 3 z M 10 5 L 10 6 L 11 6 L 11 5 L 10 5 z M 12 5 L 12 6 L 13 6 L 13 5 L 12 5 z M 14 5 L 14 6 L 15 6 L 15 5 L 14 5 z M 14 9 L 14 10 L 15 10 L 15 12 L 14 12 L 14 13 L 19 13 L 19 12 L 18 12 L 18 10 L 19 10 L 19 9 L 14 9 z M 16 10 L 17 10 L 17 12 L 16 12 L 16 10 z M 8 11 L 8 12 L 9 12 L 9 11 L 8 11 z M 10 11 L 10 12 L 11 12 L 11 11 L 10 11 z M 12 11 L 12 12 L 13 12 L 13 11 L 12 11 z M 12 15 L 12 16 L 13 16 L 13 18 L 12 18 L 12 19 L 13 19 L 14 19 L 15 19 L 19 19 L 19 18 L 18 18 L 18 16 L 19 16 L 19 15 L 15 15 L 14 15 L 13 15 L 12 15 z M 14 16 L 15 16 L 15 18 L 14 18 L 14 16 z M 16 16 L 17 16 L 17 18 L 16 18 L 16 16 z M 6 17 L 6 18 L 7 18 L 7 17 L 6 17 z M 8 17 L 8 18 L 9 18 L 9 17 L 8 17 z M 10 17 L 10 18 L 11 18 L 11 17 L 10 17 z "
     class="ColorScheme-Highlight"
     />
</svg>
